assets/icons/custom/work.svg

<svg width="20" height="21" viewBox="0 0 20 21" fill="none" xmlns="http://www.w3.org/2000/svg">
<g id="pajamas:work">
<path id="Vector" fill-rule="evenodd" clip-rule="evenodd" d="M7.5 2.19141C6.91984 2.19141 6.36344 2.42187 5.9532 2.83211C5.54297 3.24235 5.3125 3.79875 5.3125 4.37891V5.94141H3.75C3.08696 5.94141 2.45107 6.2048 1.98223 6.67364C1.51339 7.14248 1.25 7.77837 1.25 8.44141V17.1914C1.25 17.8544 1.51339 18.4903 1.98223 18.9592C2.45107 19.428 3.08696 19.6914 3.75 19.6914H16.25C16.913 19.6914 17.5489 19.428 18.0178 18.9592C18.4866 18.4903 18.75 17.8544 18.75 17.1914V8.44141C18.75 7.77837 18.4866 7.14248 18.0178 6.67364C17.5489 6.2048 16.913 5.94141 16.25 5.94141H14.6875V4.37891C14.6875 3.79875 14.457 3.24235 14.0468 2.83211C13.6366 2.42187 13.0802 2.19141 12.5 2.19141H7.5ZM12.8125 5.94141V4.37891C12.8125 4.29603 12.7796 4.21654 12.721 4.15794C12.6624 4.09933 12.5829 4.06641 12.5 4.06641H7.5C7.41712 4.06641 7.33763 4.09933 7.27903 4.15794C7.22042 4.21654 7.1875 4.29603 7.1875 4.37891V5.94141H12.8125ZM3.75 7.81641H16.25C16.4158 7.81641 16.5747 7.88225 16.6919 7.99946C16.8092 8.11667 16.875 8.27565 16.875 8.44141V9.69141H3.125V8.44141C3.125 8.27565 3.19085 8.11667 3.30806 7.99946C3.42527 7.88225 3.58424 7.81641 3.75 7.81641ZM3.125 11.5664V17.1914C3.125 17.3572 3.19085 17.5161 3.30806 17.6333C3.42527 17.7506 3.58424 17.8164 3.75 17.8164H16.25C16.4158 17.8164 16.5747 17.7506 16.6919 17.6333C16.8092 17.5161 16.875 17.3572 16.875 17.1914V11.5664H11.25H3.125Z" fill="#5C5E64"/>
</g>
</svg>

<svg width="20" height="21" fill="none" xmlns="http://www.w3.org/2000/svg">
    <path fill-rule="evenodd" clip-rule="evenodd" d="M7.5 2.191A2.187 2.187 0 0 0 5.312 4.38V5.94H3.75a2.5 2.5 0 0 0-2.5 2.5v8.75a2.5 2.5 0 0 0 2.5 2.5h12.5a2.5 2.5 0 0 0 2.5-2.5v-8.75a2.5 2.5 0 0 0-2.5-2.5h-1.563V4.38A2.188 2.188 0 0 0 12.5 2.19h-5Zm5.313 3.75V4.38a.312.312 0 0 0-.313-.313h-5a.312.312 0 0 0-.313.313V5.94h5.625ZM3.75 7.816h12.5a.625.625 0 0 1 .625.625v1.25H3.125v-1.25a.625.625 0 0 1 .625-.625Zm-.625 3.75v5.625a.625.625 0 0 0 .625.625h12.5a.624.624 0 0 0 .625-.625v-5.625H3.125Z" fill="#5C5E64"/>
</svg>
